!!!OTL: SEI GEGRUESST IN REINER SCHOENE
!!!ARE: Europa, Mitteleuropa, Deutschland
!!!SCT: B0239
!!!YEM: Copyright 1995, estate of Helmut Schaffrath.
**kern
*ICvox
*Ivox
*M4/4
*k[]
*C:
{8G
8F
=1
4.E
8E
4.E
8E
=2
8G
8F
4F
4r}
{8F
8E
=3
4.D
8D
4.G
8F
=4
4F
4E
4r}
{8G
8F
=5
4.E
8E
4.E
8E
=6
8G
8F
4F
4r}
{8F
8E
=7
4.D
8D
4.G
8F
=8
4F
4E
4r}
{8G
8A
=9
4.B
8B
4.c
8F#
=10
8A
8G
4G
4r}
{8G
8A
=11
4.B
8B
4d
8c
8A
=12
2G
4r}
{8G
8F
=13
4.E
8E
4.A
8E
=14
8G
8F
4F
4r}
{8d
8c
=15
8c
8B
8A
8G
4G
8A
8B
=16
2c
4r}
==
!!!AGN: Tageszeiten - Lied, Abend
!!!ONB: ESAC (Essen Associative Code) Database: BOEHME
!!!AMT: simple quadruple
!!!AIN: vox
!!!EED: Helmut Schaffrath
!!!EEV: 1.0
*-
